X:155
T: GIK GAK FER E DREIER SCHNUPFTABAK
N: E1270
O: Europa, Mitteleuropa, Deutschland, Thueringen, Erfurt, Stotternheim
R: Ansinge -, Brauchtums - Lied, Kirchen - Fest, Sankt Martin
M: 4/4
L: 1/8
K: F
 | c4A4 | c4A4 |
F2G2A2B2 | c2c2A4 |
F2G2A2B2 | c4A4 |
F2G2A2B2 | c4A4 |
F2G2A2B2 | c2ccA4 |
d2c2B2A2 | G2G2F2z2

@@@ Tune index: 4839
